X: 13
T: The Star Of Munster
R: reel
M: 4/4
L: 1/8
K: Edor
|: G2 EG FEDF | EDBc dBAd | BEED EFGA |B2 ecdB A2 |
G2 EG FEDF | EDBc dBAd | BEED EFGA |1 B2 AF E3F :|2 B2 AF E3d||
|:e3f edBd | edfd edBc | d3e dBAB |d2 ec dBAd |
e3f edBd | edfd edBc | d4 e4| f3 e dB A2 :||


Tune 197	Setting 26184

